icons/svg/subway/subway_italy.svg

<?xml version="1.0" encoding="UTF-8" standalone="no"?>
<svg
   xmlns:dc="http://purl.org/dc/elements/1.1/"
   xmlns:cc="http://creativecommons.org/ns#"
   xmlns:rdf="http://www.w3.org/1999/02/22-rdf-syntax-ns#"
   xmlns:svg="http://www.w3.org/2000/svg"
   xmlns="http://www.w3.org/2000/svg"
   xmlns:sodipodi="http://sodipodi.sourceforge.net/DTD/sodipodi-0.dtd"
   xmlns:inkscape="http://www.inkscape.org/namespaces/inkscape"
   width="16"
   height="16"
   id="svg2"
   version="1.1"
   inkscape:version="0.91 r"
   sodipodi:docname="subway_italy.svg">
  <defs
     id="defs13">
    <linearGradient
       gradientTransform="matrix(0.08596979,0,0,0.08596979,0.67480439,1.9432845)"
       x1="87.101639"
       y1="121.69753"
       x2="87.260849"
       y2="1.2385538"
       id="l1"
       gradientUnits="userSpaceOnUse">
      <stop
         style="stop-color:#e92203;stop-opacity:1"
         offset="0"
         id="stop5" />
      <stop
         style="stop-color:#ff0000;stop-opacity:0.64628822"
         offset="1"
         id="stop7" />
    </linearGradient>
    <linearGradient
       gradientTransform="matrix(0.08400469,0,0,0.08400469,0.8422306,2.0814238)"
       x1="87.101639"
       y1="121.69753"
       x2="87.260849"
       y2="1.2385538"
       id="l1-2"
       gradientUnits="userSpaceOnUse">
      <stop
         style="stop-color:#e92203;stop-opacity:1"
         offset="0"
         id="stop5-8" />
      <stop
         style="stop-color:#ff0000;stop-opacity:0.64628822"
         offset="1"
         id="stop7-4" />
    </linearGradient>
  </defs>
  <sodipodi:namedview
     pagecolor="#ffffff"
     bordercolor="#666666"
     borderopacity="1"
     objecttolerance="10"
     gridtolerance="10"
     guidetolerance="10"
     inkscape:pageopacity="0"
     inkscape:pageshadow="2"
     inkscape:window-width="1332"
     inkscape:window-height="739"
     id="namedview11"
     showgrid="true"
     inkscape:zoom="32"
     inkscape:cx="7.0733365"
     inkscape:cy="8.6413646"
     inkscape:window-x="34"
     inkscape:window-y="1024"
     inkscape:window-maximized="1"
     inkscape:current-layer="svg2"
     showguides="false"
     inkscape:snap-global="false">
    <sodipodi:guide
       position="0,0"
       orientation="0,580"
       id="guide2989" />
    <sodipodi:guide
       position="580,0"
       orientation="-580,0"
       id="guide2991" />
    <sodipodi:guide
       position="580,580"
       orientation="0,-580"
       id="guide2993" />
    <sodipodi:guide
       position="0,580"
       orientation="580,0"
       id="guide2995" />
    <sodipodi:guide
       position="0,0"
       orientation="0,580"
       id="guide2997" />
    <sodipodi:guide
       position="580,0"
       orientation="-580,0"
       id="guide2999" />
    <sodipodi:guide
       position="580,580"
       orientation="0,-580"
       id="guide3001" />
    <sodipodi:guide
       position="0,580"
       orientation="580,0"
       id="guide3003" />
    <inkscape:grid
       type="xygrid"
       id="grid3013"
       empspacing="5"
       visible="true"
       enabled="true"
       snapvisiblegridlinesonly="true" />
  </sodipodi:namedview>
  <metadata
     id="metadata2975">image/svg+xmlen<rdf:RDF>
  <cc:Work
     rdf:about="">
    <dc:format>image/svg+xml</dc:format>
    <dc:type
       rdf:resource="http://purl.org/dc/dcmitype/StillImage" />
    <dc:title />
  </cc:Work>
</rdf:RDF>
</metadata>
  <rect
     style="opacity:1;fill:#fefefe;stroke:none;stroke-width:4;fill-opacity:1"
     x="3.8125"
     y="3.8125"
     width="8.375"
     height="8.375"
     id="rect4-9" />
  <rect
     style="fill:#e7271e;stroke:none;stroke-width:4"
     x="4.40625"
     y="4.40625"
     width="7.1875"
     height="7.1875"
     id="rect4" />
  <path
     inkscape:connector-curvature="0"
     style="fill:#fefefe;fill-opacity:1"
     d="m 5.824973,5.7394322 1.3613477,0 0.8053339,3.0690306 0.8053337,-3.0690306 1.3665637,0 0.937818,4.5294818 -0.933645,0 -0.7093621,-3.4320576 -0.9910189,3.4320576 -0.9440765,0 -0.9910205,-3.4320576 -0.7093599,3.4320576 -0.9336451,0"
     id="path6" />
</svg>

<svg width="16" height="16" viewBox="0 0 16 16" fill="none" xmlns="http://www.w3.org/2000/svg">
<path d="M12.1875 3.8125H3.8125V12.1875H12.1875V3.8125Z" fill="#FEFEFE"/>
<path d="M11.5938 4.40625H4.40625V11.5938H11.5938V4.40625Z" fill="#E7271E"/>
<path d="M5.82495 5.73944H7.1863L7.99163 8.80847L8.79697 5.73944H10.1635L11.1013 10.2689H10.1677L9.45834 6.83686L8.46732 10.2689H7.52325L6.53223 6.83686L5.82287 10.2689H4.88922" fill="#FEFEFE"/>
</svg>
